X: 4627
T: Bovaglie's Plaid
R: strathspey
M: 4/4
K: Gmajor
G|"C"ED/B,/ "G"D>E G>A B>G|"C"cB/A/ "G"{A}dB "Am"{B}AG E<G|"G"ED/B,/ D>E >GA"C"B>c|
"G"dB/G/ "D7"F<c FG "G"G2:|:de/f/|"G"gf/e/ (3 dBG "C"(3 ecG "G"(3 dBG|(3B,DG (3(Bdg) "D"{Bc}B>A A2 (3de/f/|
"G"gf/e/ (3dBG "C"(3EGc "G"(3 DGB|"Am"(3CEA "D7"D<c "G"FG G2 de/f/|"G"{f}(3gfe (3dBG "C"(3ecG "G"(3dBG|
"G"gd/c/ BA/G/ "D"A>AA G/F/|"C"EF/G/ "G"DF/G/ "Am"CF/G/ "G"{Bc}(3 BAG|dB/G/ "D7"F<c FG "G"G2||

